X:707
T:The Kings of Inishbofin
R:Jig
O:Ireland
C:Charlie Lennon
S:IrTrad,12 Oct 1999 ,Joe Gerhard
Z:Transcription, chords:Mike Long
M:6/8
L:1/8
K:D
"D"AB/c/d AFA|"A"GEE EFG|Ace ged|"A"cdc "G"Bcd|\
"D"Add AFA|"A"~GFG EFG|
"A"Ace "G"ged |"A"cBA "D"d2B:|\
|:"D"Aff {a}fdA|"G"Bgg {a}gfe|Agg {a}gfe|
"A"Aea bag |\
"D"fag fdA |"G"Bgg {a}gfe|"A"cea "G"bag|"A"fge "D"d2B:|
